X:1224
T:Pekkos Pers brudlåt
T:Polska efter Pekkos Per (SvL Dalarna 1224)
O:Rättvik, Dalarna
B:Svenska Låtar Dalarna
S:Pekkos Per
S:Hjort Anders Olsson
Q:1/4=120
M:3/4
L:1/8
K:Dm
(ve|:T[fA]2) (d<[df]) (d<[df])|Te>^c ([AA,]c) ([AA,]c)|{/A}[BD]2 (GB) (GB)|1TA^F (DF) (DF):|2TA^F (DF) D(F||
|:D)>^F ({FE}F)D/F/ A2-|LA^c TcA/c/ [ee]2|D^F {FE}FD/F/ A2-|LA^c TcA/c/ [ee]>c|
d>e fa/f/ ed| ^c=B/c/ cd [dD]2:|

